X: 38371
T: Standing Abbey, The
R: hornpipe
M: 4/4
K: Fmajor
|:C2|{G/}F>EF>A c>Af>e|(3ded B>d c>AF>A||(3BdB G>B (3AcA F>G|E>Gc>=B d>c_B>G|
F>EF>A c>Af>e|(3ded B>d c>(AF)>A|(3BdB G>B (3AcA F>A|(3GAG E>G F3/2 z/:|
|:A>B|{d/}c>=Bc>e g>(ec)>e|g>ab>a g>fe>d|c>de>f g>ab>a|(3gag (3fed (3cdc (3BAG|
F>EF>A c>Af>e|(3ded B>d c>AF>A|(3BdB G>B (3AcA F>A|(3GAG E>G F3/2 z/:|

